X:7
T:Seyre #1
M:6/8
K:Am
P:A
"Am"A2c d>eg e2d B>Ad B2A "D"F2E |1,3 "C"GAF "D"D2C :|2 "C"GFD "D"A2C :|4 "C"GFD "D"A3 ||
P:B
"C/G"c2B "D"A2G c2d B2A "C/G"c2B "D"A2G |1,3 F2E D2C :|2 F>ED "A"A2C :|4 "D"F>ED "A"A3 ||

